X:1
T:Nathaniel Gow's Lament for the Death of His Brother
T:Nathaniel Gow's Lament for the Death of His Brother
T:Gallowglass
T:Nathaniel Gow (1763-1831)
C:Nathaniel Gow (1763-1831)
L:1/8
Q:1/8=120
M:6/8
K:C
V:1 treble 
V:1
 A/B/ |"Am" c>BA eBd | cAA A2 A/B/ | cBA e^fg |"Em" BGG G2 A/B/ |"Am" cBA eBd | cea e2 d | %7
 c>BA EA^G | A[CA][CA] [CA]2 :| e |"Am" a^ga e=g/f/e/d/ | cAA A2 A/B/ | cBA e^fg |"Em" BGG G2 e | %14
"Am" a^ga e=g/f/e/d/ | cAA Ae>d | c>BA EA^G | A[CA][CA] [CA]2 e |"Am" a^ga e=g/f/e/d/ | %19
 cAA A2 A/B/ | cBA e^fg |"Em" BGG G2 e |"Am" aeg fdB |"Em" ecA B^GE |"Am" ABc"Em" Be/d/c/B/ | %25
"Am" cA[DA] [CA]3 |] %26

